icons/arrow-circle-downleftB.svg

<svg width="24" height="24" viewBox="0 0 24 24" fill="none" xmlns="http://www.w3.org/2000/svg">
<path d="M12 21C16.9706 21 21 16.9706 21 12C21 7.02944 16.9706 3 12 3C7.02944 3 3 7.02944 3 12C3 16.9706 7.02944 21 12 21Z" fill="black"/>
<path fill-rule="evenodd" clip-rule="evenodd" d="M12 3.75C7.44365 3.75 3.75 7.44365 3.75 12C3.75 16.5563 7.44365 20.25 12 20.25C16.5563 20.25 20.25 16.5563 20.25 12C20.25 7.44365 16.5563 3.75 12 3.75ZM2.25 12C2.25 6.61522 6.61522 2.25 12 2.25C17.3848 2.25 21.75 6.61522 21.75 12C21.75 17.3848 17.3848 21.75 12 21.75C6.61522 21.75 2.25 17.3848 2.25 12Z" fill="black"/>
<path fill-rule="evenodd" clip-rule="evenodd" d="M14.8669 9.07891C15.1598 9.37181 15.1598 9.84668 14.8669 10.1396L10.6242 14.3822C10.3313 14.6751 9.85647 14.6751 9.56358 14.3822C9.27068 14.0893 9.27068 13.6144 9.56358 13.3216L13.8062 9.07891C14.0991 8.78602 14.574 8.78602 14.8669 9.07891Z" fill="white"/>
<path fill-rule="evenodd" clip-rule="evenodd" d="M9.45752 9.63695C9.87173 9.63695 10.2075 9.97274 10.2075 10.387L10.2075 13.6675L13.488 13.6675C13.9023 13.6675 14.238 14.0033 14.238 14.4175C14.238 14.8317 13.9023 15.1675 13.488 15.1675L9.9525 15.1675C9.25545 15.1675 8.70752 14.6195 8.70752 13.9225L8.70752 10.387C8.70752 9.97274 9.04331 9.63695 9.45752 9.63695Z" fill="white"/>
</svg>

<svg xmlns="http://www.w3.org/2000/svg" fill="none" viewBox="0 0 24 24">
  <path fill="#000" d="M12 21a9 9 0 1 0 0-18 9 9 0 0 0 0 18Z"/>
  <path fill="#000" fill-rule="evenodd" d="M12 3.75a8.25 8.25 0 1 0 0 16.5 8.25 8.25 0 0 0 0-16.5ZM2.25 12c0-5.385 4.365-9.75 9.75-9.75s9.75 4.365 9.75 9.75-4.365 9.75-9.75 9.75S2.25 17.385 2.25 12Z" clip-rule="evenodd"/>
  <path fill="#fff" fill-rule="evenodd" d="M14.867 9.079a.75.75 0 0 1 0 1.06l-4.243 4.243a.75.75 0 1 1-1.06-1.06l4.242-4.243a.75.75 0 0 1 1.06 0Z" clip-rule="evenodd"/>
  <path fill="#fff" fill-rule="evenodd" d="M9.458 9.637a.75.75 0 0 1 .75.75v3.28h3.28a.75.75 0 1 1 0 1.5H9.953a1.233 1.233 0 0 1-1.245-1.245v-3.535a.75.75 0 0 1 .75-.75Z" clip-rule="evenodd"/>
</svg>
